src/assets/Devices/Legion Go Gyro.svg

<svg width="1761" height="773" viewBox="0 0 1761 773" fill="none" xmlns="http://www.w3.org/2000/svg">
<rect x="269.52" y="8" width="1220.6" height="760.08" rx="11.5" stroke="white"/>
<path d="M1490.73 29.44C1490.73 24.8145 1490.73 21.3823 1491 18.7197C1491.26 16.0625 1491.78 14.2362 1492.78 12.796C1494.03 10.9869 1495.78 9.57542 1497.81 8.72917C1499.43 8.05548 1501.32 7.92874 1503.98 8.2282C1506.64 8.52826 1509.99 9.24723 1514.52 10.2169L1609.24 30.5269C1636.63 36.3982 1657.14 40.7956 1673.26 45.6861C1689.38 50.5744 1701.07 55.9449 1710.85 63.7428C1722.97 73.414 1732.83 85.6152 1739.75 99.4939C1745.32 110.684 1748.12 123.249 1749.52 140.032C1750.92 156.823 1750.92 177.797 1750.92 205.804V561.856C1750.92 606.182 1750.91 628.192 1742.76 646.734C1737.69 658.253 1730.42 668.669 1721.36 677.397C1706.77 691.448 1686.11 699.051 1644.51 714.343L1517.18 761.144C1512.24 762.96 1508.56 764.308 1505.64 765.056C1502.73 765.802 1500.63 765.928 1498.82 765.365C1496.55 764.658 1494.55 763.266 1493.11 761.378C1491.95 759.872 1491.35 757.861 1491.04 754.865C1490.73 751.866 1490.73 747.955 1490.73 742.691V29.44Z" stroke="white"/>
<path d="M1751.33 285.06L1760.25 277.682V207.018C1760.25 147.541 1760.25 117.803 1748.29 93.9153C1740.89 79.1385 1730.34 66.1649 1717.38 55.9091C1696.43 39.3301 1667.31 33.2726 1609.08 21.1576L1515.36 1.65844C1514.23 1.4232 1513.17 1.20276 1512.18 1L1501.18 7.75739C1504.24 7.7024 1508.32 8.57591 1514.53 9.90773L1609.25 30.2177C1664.01 41.9568 1691.38 47.8263 1711.07 63.5316C1723.24 73.2482 1733.15 85.5068 1740.1 99.4506C1751.33 121.989 1751.33 149.987 1751.33 205.983V285.06Z" stroke="white"/>
<path d="M1751.42 437.81V285.06L1760.17 293.56V427.56L1751.42 437.81Z" stroke="white"/>
<path d="M269.52 29.4884C269.52 24.8628 269.519 21.4306 269.255 18.7681C268.992 16.1109 268.47 14.2846 267.473 12.8443C266.219 11.0352 264.473 9.62376 262.441 8.77751C260.824 8.10382 258.929 7.97708 256.276 8.27654C253.617 8.5766 250.261 9.29557 245.738 10.2653L151.01 30.5753C123.626 36.4465 103.118 40.844 86.9942 45.7344C70.8776 50.6227 59.1792 55.9932 49.4063 63.7911C37.2857 73.4623 27.4232 85.6636 20.5079 99.5423C14.932 110.733 12.1333 123.297 10.7323 140.08C9.33072 156.871 9.33032 177.845 9.33032 205.852V561.905C9.33032 606.23 9.34055 628.24 17.495 646.783C22.5605 658.301 29.8297 668.718 38.8935 677.446C53.4845 691.497 74.1398 699.099 115.744 714.391L243.077 761.192C248.019 763.008 251.689 764.357 254.61 765.104C257.528 765.851 259.624 765.976 261.436 765.413C263.706 764.707 265.702 763.314 267.148 761.427C268.302 759.921 268.907 757.91 269.213 754.913C269.519 751.914 269.52 748.004 269.52 742.739V29.4884Z" stroke="white"/>
<path d="M9.83968 147.123L1.5 137.115C2.99701 119.287 5.98802 105.895 11.964 93.9637C19.365 79.1868 29.9172 66.2132 42.8767 55.9575C63.8264 39.3785 92.9411 33.321 151.171 21.2059L244.891 1.70678C246.022 1.47154 247.081 1.2511 248.076 1.04834L259.077 7.80573C256.012 7.75074 251.937 8.62425 245.726 9.95607L150.998 30.266C96.246 42.0051 68.87 47.8746 49.187 63.58C37.0095 73.2966 27.1006 85.5551 20.1529 99.499C13.7946 112.26 11.0363 126.771 9.83968 147.123Z" stroke="white"/>
<path d="M266.365 16.8027L272.266 16.8163C272.465 15.7465 272.743 15.004 273.101 14.3991C273.872 13.0942 274.961 12.0055 276.266 11.2338L274.743 8.65915L276.266 11.2338C277.139 10.7176 278.3 10.3659 280.348 10.1766C282.438 9.98346 285.137 9.98047 289.007 9.98047H1470.29C1474.16 9.98047 1476.86 9.98346 1478.95 10.1766C1481 10.3659 1482.16 10.7176 1483.03 11.2338C1484.34 12.0054 1485.43 13.0942 1486.2 14.3991C1486.75 15.3324 1487.11 16.5907 1487.29 18.9018L1493.27 18.9208C1493.51 16.1403 1493.98 14.6963 1494.67 13.7011C1495.65 12.2852 1497.01 11.1806 1498.6 10.5184C1499.65 10.0817 1501.05 9.91454 1503.53 10.1938C1506.03 10.4767 1509.25 11.1622 1513.82 12.1428L1608.55 32.4528C1635.97 38.3327 1656.36 42.7067 1672.36 47.5599C1688.32 52.4001 1699.69 57.6543 1709.12 65.1783C1720.95 74.6225 1730.58 86.5373 1737.34 100.09C1742.72 110.888 1745.47 123.103 1746.86 139.721C1748.25 156.384 1748.25 177.237 1748.25 205.285V561.338C1748.25 605.899 1748.19 627.264 1740.3 645.209C1735.36 656.429 1728.28 666.576 1719.46 675.078C1705.33 688.676 1685.3 696.104 1643.48 711.477L1516.14 758.279C1511.15 760.114 1507.62 761.407 1504.85 762.115C1502.1 762.819 1500.55 762.819 1499.39 762.459C1497.61 761.906 1496.05 760.816 1494.92 759.339C1494.19 758.391 1493.66 756.956 1493.37 754.202L1487.39 754.406C1487.26 757.848 1486.89 759.475 1486.2 760.641C1485.43 761.946 1484.34 763.035 1483.03 763.807C1482.16 764.323 1481 764.675 1478.95 764.864C1476.86 765.057 1474.16 765.06 1470.29 765.06H289.007C285.137 765.06 282.438 765.057 280.348 764.864C278.3 764.675 277.139 764.323 276.266 763.807C274.961 763.035 273.872 761.946 273.101 760.641C272.617 759.824 272.277 758.752 272.081 756.934L266.173 756.592C265.874 757.907 265.474 758.756 264.991 759.386C263.859 760.863 262.298 761.953 260.521 762.506C259.364 762.865 257.808 762.866 255.058 762.162C252.289 761.454 248.76 760.16 243.767 758.325L116.434 711.524C74.6086 696.151 54.5766 688.723 40.4555 675.125C31.6265 666.623 24.5456 656.476 19.6113 645.256C11.7195 627.311 11.6582 605.946 11.6582 561.385V205.332C11.6582 177.284 11.6606 156.431 13.0516 139.768C14.4388 123.15 17.1933 110.935 22.5734 100.137C29.3263 86.5842 38.9574 74.6694 50.7934 65.2252C60.2231 57.7011 71.5898 52.4469 87.5478 47.6067C103.549 42.7535 123.938 38.3796 151.362 32.4996L246.09 12.1896C250.663 11.2091 253.877 10.5236 256.384 10.2407C258.858 9.96141 260.26 10.1285 261.308 10.5652C262.898 11.2275 264.265 12.3321 265.245 13.748C265.725 14.4405 266.103 15.3578 266.365 16.8027Z" stroke="white" stroke-width="6"/>
</svg>

<svg width="1761" height="773" fill="none" xmlns="http://www.w3.org/2000/svg"><rect x="269.519" y="8" width="1220.6" height="760.08" rx="11.5" stroke="#fff"/><path d="M1490.73 29.44c0-4.626 0-8.058.27-10.72.26-2.657.78-4.484 1.78-5.924 1.25-1.81 3-3.22 5.03-4.067 1.62-.674 3.51-.8 6.17-.5 2.66.3 6.01 1.018 10.54 1.988l94.72 20.31c27.39 5.871 47.9 10.269 64.02 15.16 16.12 4.887 27.81 10.258 37.59 18.056a106.569 106.569 0 0 1 28.9 35.75c5.57 11.191 8.37 23.756 9.77 40.539 1.4 16.791 1.4 37.765 1.4 65.772v356.052c0 44.326-.01 66.336-8.16 84.878a96.628 96.628 0 0 1-21.4 30.663c-14.59 14.051-35.25 21.654-76.85 36.946l-127.33 46.801c-4.94 1.816-8.62 3.164-11.54 3.912-2.91.746-5.01.872-6.82.309a11.47 11.47 0 0 1-5.71-3.987c-1.16-1.506-1.76-3.517-2.07-6.513-.31-2.999-.31-6.91-.31-12.174V29.44Z" stroke="#fff"/><path d="m1751.33 285.06 8.92-7.378v-70.664c0-59.477 0-89.215-11.96-113.103a112.976 112.976 0 0 0-30.91-38.006c-20.95-16.579-50.07-22.636-108.3-34.751l-93.72-19.5c-1.13-.235-2.19-.455-3.18-.658l-11 6.757c3.06-.055 7.14.819 13.35 2.15l94.73 20.31c54.75 11.74 82.12 17.61 101.81 33.315a107.107 107.107 0 0 1 29.03 35.919c11.23 22.538 11.23 50.536 11.23 106.532v79.077Zm.09 152.75V285.06l8.75 8.5v134l-8.75 10.25ZM269.519 29.488c0-4.625-.001-8.057-.265-10.72-.263-2.657-.785-4.483-1.782-5.924-1.254-1.809-3-3.22-5.032-4.066-1.617-.674-3.512-.8-6.165-.501-2.659.3-6.015 1.019-10.538 1.988l-94.728 20.31c-27.384 5.872-47.892 10.269-64.016 15.16-16.116 4.888-27.815 10.258-37.588 18.056a106.5 106.5 0 0 0-28.898 35.751c-5.576 11.191-8.375 23.755-9.776 40.538-1.401 16.791-1.402 37.765-1.402 65.772v356.053c0 44.325.01 66.335 8.165 84.878a96.504 96.504 0 0 0 21.398 30.663c14.591 14.051 35.247 21.653 76.851 36.945l127.333 46.801c4.942 1.816 8.612 3.165 11.533 3.912 2.918.747 5.014.872 6.826.309a11.5 11.5 0 0 0 5.712-3.986c1.154-1.506 1.759-3.517 2.065-6.514.306-2.999.307-6.909.307-12.174V29.489Z" stroke="#fff"/><path d="M9.84 147.123 1.5 137.115c1.497-17.828 4.488-31.22 10.464-43.151a113 113 0 0 1 30.913-38.006C63.827 39.378 92.94 33.32 151.17 21.206l93.72-19.5c1.131-.234 2.19-.455 3.185-.658l11.001 6.758c-3.065-.055-7.14.818-13.351 2.15l-94.728 20.31C96.246 42.006 68.87 47.875 49.187 63.58a106.999 106.999 0 0 0-29.034 35.919c-6.358 12.761-9.117 27.272-10.313 47.624Z" stroke="#fff"/><path d="m266.366 16.803 5.901.013c.199-1.07.477-1.812.835-2.417a8.992 8.992 0 0 1 3.165-3.165l-1.523-2.575 1.523 2.575c.873-.516 2.034-.868 4.082-1.057 2.09-.194 4.789-.197 8.659-.197H1470.29c3.87 0 6.57.003 8.66.197 2.05.189 3.21.54 4.08 1.057a8.95 8.95 0 0 1 3.17 3.165c.55.933.91 2.192 1.09 4.503l5.98.019c.24-2.78.71-4.225 1.4-5.22a8.974 8.974 0 0 1 3.93-3.183c1.05-.436 2.45-.603 4.93-.324 2.5.283 5.72.968 10.29 1.949l94.73 20.31c27.42 5.88 47.81 10.254 63.81 15.107 15.96 4.84 27.33 10.094 36.76 17.618a104.039 104.039 0 0 1 28.22 34.912c5.38 10.798 8.13 23.013 9.52 39.631 1.39 16.663 1.39 37.516 1.39 65.564v356.053c0 44.561-.06 65.926-7.95 83.871a93.904 93.904 0 0 1-20.84 29.869c-14.12 13.598-34.16 21.026-75.98 36.399l-127.34 46.802c-4.99 1.835-8.52 3.128-11.29 3.836-2.75.704-4.3.704-5.46.344a8.98 8.98 0 0 1-4.47-3.12c-.73-.948-1.26-2.383-1.55-5.137l-5.98.204c-.13 3.442-.5 5.069-1.19 6.235a8.96 8.96 0 0 1-3.17 3.166c-.87.516-2.03.868-4.08 1.057-2.09.193-4.79.196-8.66.196H289.008c-3.87 0-6.569-.003-8.659-.196-2.048-.189-3.209-.541-4.082-1.057a8.996 8.996 0 0 1-3.165-3.166c-.484-.817-.824-1.889-1.02-3.707l-5.908-.342c-.299 1.315-.699 2.164-1.182 2.794a9.001 9.001 0 0 1-4.47 3.12c-1.157.359-2.713.36-5.464-.344-2.768-.708-6.297-2.002-11.29-3.837l-127.333-46.801c-41.825-15.373-61.857-22.801-75.978-36.399a94 94 0 0 1-20.845-29.869c-7.891-17.945-7.953-39.31-7.953-83.871V205.332c0-28.048.003-48.901 1.393-65.564 1.388-16.618 4.142-28.833 9.522-39.631a104.001 104.001 0 0 1 28.22-34.912c9.43-7.524 20.797-12.778 36.755-17.618 16.001-4.853 36.39-9.227 63.814-15.107l94.728-20.31c4.573-.98 7.787-1.666 10.294-1.95 2.474-.279 3.875-.111 4.924.325a8.994 8.994 0 0 1 3.937 3.183c.48.693.858 1.61 1.12 3.055Z" stroke="#fff" stroke-width="6"/></svg>
